src/assets/images/layout/layout2.svg

<svg fill="none" height="108" viewBox="0 0 158 108" width="158" xmlns="http://www.w3.org/2000/svg"><g fill="#000"><path clip-rule="evenodd" d="m10 0h138c5.523 0 10 4.47715 10 10v88c0 5.523-4.477 10-10 10h-138c-5.52284 0-10-4.477-10-10v-88c0-5.52285 4.47715-10 10-10zm0 4c-3.31371 0-6 2.68629-6 6v88c0 3.314 2.6863 6 6 6h138c3.314 0 6-2.686 6-6v-88c0-3.31371-2.686-6-6-6z" fill-rule="evenodd"/><path d="m123 50h31v4h-31z"/><path d="m4 50h84v4h-84z"/><path d="m88 104v-100h4v100z"/><path d="m119 104v-100h4v100z"/></g></svg>

<svg width="158" height="108" viewBox="0 0 158 108" fill="none" xmlns="http://www.w3.org/2000/svg">
<path fill-rule="evenodd" clip-rule="evenodd" d="M10 0H148C153.523 0 158 4.47715 158 10V98C158 103.523 153.523 108 148 108H10C4.47716 108 0 103.523 0 98V10C0 4.47715 4.47715 0 10 0ZM10 4C6.68629 4 4 6.68629 4 10V98C4 101.314 6.6863 104 10 104H148C151.314 104 154 101.314 154 98V10C154 6.68629 151.314 4 148 4H10Z" fill="black"/>
<path d="M123 50H154V54H123V50Z" fill="black"/>
<path d="M4 50H88V54H4V50Z" fill="black"/>
<path d="M88 104V4H92V104H88Z" fill="black"/>
<path d="M119 104V4H123V104H119Z" fill="black"/>
</svg>
